categories/start-menu/applications-x-tellico.svg

<?xml version="1.0" encoding="UTF-8" standalone="no"?>
<!-- Generator: flash2svg, http://dissentgraphics.com/tools/flash2svg -->

<svg
   xmlns:dc="http://purl.org/dc/elements/1.1/"
   xmlns:cc="http://creativecommons.org/ns#"
   xmlns:rdf="http://www.w3.org/1999/02/22-rdf-syntax-ns#"
   xmlns:svg="http://www.w3.org/2000/svg"
   xmlns="http://www.w3.org/2000/svg"
   xmlns:sodipodi="http://sodipodi.sourceforge.net/DTD/sodipodi-0.dtd"
   xmlns:inkscape="http://www.inkscape.org/namespaces/inkscape"
   id="Calibre"
   version="1.1"
   x="0px"
   y="0px"
   width="512"
   height="512"
   viewBox="0 0 512 512"
   enable-background="new 0 0 1024 1024"
   inkscape:version="0.92.2 2405546, 2018-03-11"
   sodipodi:docname="applications-x-tellico.svg"
   style="image-rendering:optimizeSpeed">
  <metadata
     id="metadata53">
    <rdf:RDF>
      <cc:Work
         rdf:about="">
        <dc:format>image/svg+xml</dc:format>
        <dc:type
           rdf:resource="http://purl.org/dc/dcmitype/StillImage" />
        <dc:title />
      </cc:Work>
    </rdf:RDF>
  </metadata>
  <sodipodi:namedview
     pagecolor="#ffffff"
     bordercolor="#666666"
     borderopacity="1"
     objecttolerance="10"
     gridtolerance="10"
     guidetolerance="10"
     inkscape:pageopacity="0"
     inkscape:pageshadow="2"
     inkscape:window-width="1366"
     inkscape:window-height="713"
     id="namedview51"
     showgrid="false"
     inkscape:zoom="0.71539318"
     inkscape:cx="575.70927"
     inkscape:cy="225.01015"
     inkscape:window-x="0"
     inkscape:window-y="24"
     inkscape:window-maximized="1"
     inkscape:current-layer="Calibre" />
  <defs
     transform="matrix(1 0 0 1 0 0) "
     id="defs3" />
  <g
     id="g843">
    <path
       style="fill:#3689e6;fill-opacity:1;stroke-width:11.10955811"
       inkscape:connector-curvature="0"
       d="M 432.91336,56.473967 C 535.10616,145.04856 538.74001,306.17367 441.03015,416.37276 343.32009,526.57184 181.27948,544.10061 79.086673,455.52602 -23.106166,366.95143 -26.740027,205.82631 70.969881,95.627227 168.67975,-14.571854 330.72029,-32.100623 432.91336,56.473967 Z"
       id="path911" />
    <path
       style="opacity:1;fill:#000000;fill-opacity:0.49019608;stroke-width:11.10955238"
       inkscape:connector-curvature="0"
       d="M 511.63501,224.90352 C 510.08361,286.21518 486.4738,349.05812 440.6687,400.71801 342.95883,510.9171 180.91854,528.44585 78.725731,439.87127 30.827127,398.35564 4.4968527,340.92283 0.193863,280.22879 0.79911423,346.58547 27.117419,410.48219 79.078635,455.51904 181.27144,544.09362 343.31942,526.5562 441.0216,416.36578 490.72648,360.30764 514.02655,291.07481 511.63501,224.90352 Z"
       id="path913" />
    <g
       style="fill:#000000;fill-opacity:0.49019608"
       id="g833"
       transform="matrix(1.0416604,0,0,1.0416604,8.5423372,-14.164085)">
      <path
         sodipodi:nodetypes="cscccsccsccsccsscccscccccccccscsccccccscccccccccssssscccsccsccscscsscccscccccccccccsccccccccccccccccccccccccccccccccccccscccccccsssss"
         id="path829"
         d="m 399.16406,212.9375 c -1.04823,-0.001 -2.25917,0.0312 -3.65625,0.0312 h -7.3125 v 26.91406 26.91602 h 7.21289 c 6.43237,0 7.39385,-0.1679 8.85547,-1.54102 l 1.63867,-1.53906 v -23.73633 c 0,-25.41806 0.59934,-27.0372 -6.73828,-27.04492 z m -208.71679,0.0312 c -6.43238,0 -7.39189,0.16594 -8.85352,1.53906 l -1.63867,1.54102 v 23.73437 c 0,29.04921 -0.78402,27.01563 10.39258,27.01563 h 7.31445 V 239.88276 212.9687 Z m 16.42382,0 v 26.91406 26.91602 h 4.60352 4.60351 V 239.88276 212.9687 h -4.60351 z m 86.05664,0 c -59.63702,0 -67.64694,0.12579 -67.68164,1.0625 -0.0216,0.58434 -0.0391,11.10177 -0.0391,23.37305 0,12.27128 0.0175,23.90568 0.0391,25.85351 l 0.0391,3.54102 h 67.64257 67.64258 V 239.88276 212.9687 Z m 76.85157,0 v 26.91406 26.91602 h 4.60351 4.60352 V 239.88276 212.9687 h -4.60352 z m -52.88672,6.14648 c 11.04569,0 20,8.95431 20,20 0,11.04569 -8.95431,20 -20,20 -11.04569,0 -20,-8.95431 -20,-20 0,-11.04569 8.95431,-20 20,-20 z m 71.30273,65.97071 v 22.73047 22.72851 h 7.11524 c 6.61,0 7.23841,-0.12317 8.85351,-1.73828 l 1.73828,-1.73828 v -19.07813 c 0,-23.75314 0.64758,-22.31452 -10.20703,-22.66406 z m -251.48242,0.1289 c -6.66287,0 -10.00207,0.98974 -10.85742,3.21875 -0.24199,0.63062 -0.43945,9.58133 -0.43945,19.89063 v 18.74414 l 1.73828,1.73828 c 1.61511,1.61511 2.24352,1.73828 8.85351,1.73828 h 7.11524 v -22.66406 -22.66602 z m 24.82617,0 v 22.66602 22.66406 H 265.6582 369.7793 V 307.88086 285.21484 H 265.6582 Z m -43.14844,63.7461 c -3.86377,0 -7.54126,0.1994 -8.17187,0.4414 -3.0166,1.15758 -3.21875,3.11234 -3.21875,31.08985 0,18.8971 0.23979,27.09213 0.82422,28.18945 1.52804,2.869 2.79166,3.27152 10.33203,3.29492 L 125.41602,412 v -31.51953 -31.51953 z m 16.23243,0 V 380.48047 412 h 4.25 4.25 v -31.51953 -31.51953 h -4.25 z m 17.70898,0 V 380.48047 412 H 256.45117 360.57031 V 380.48047 348.96094 H 256.45117 Z m 217.44727,0 V 380.48047 412 h 4.60351 4.60352 v -31.51953 -31.51953 h -4.60352 z m 18.41601,0 V 380.48047 412 h 7.11524 c 6.61,0 7.23841,-0.12317 8.85351,-1.73828 l 1.73828,-1.73828 v -28.04297 -28.04102 l -1.73828,-1.74023 c -1.6151,-1.61511 -2.24351,-1.73828 -8.85351,-1.73828 z m -71.30273,12.15429 c 11.04569,0 20,8.95431 20,20 0,11.04569 -8.95431,20 -20,20 -11.04569,0 -20,-8.95431 -20,-20 0,-11.04569 8.95431,-20 20,-20 z"
         style="fill:#000000;stroke-width:0.7082988;fill-opacity:0.49019608"
         inkscape:connector-curvature="0" />
      <path
         sodipodi:nodetypes="cccscscccccccsscscccscccsccc"
         inkscape:connector-curvature="0"
         style="fill:#000000;stroke-width:0.7082988;fill-opacity:0.49019608"
         d="m 402.13206,136.30694 c -1.45742,-0.36007 -3.37428,-0.5288 -5.88464,-0.56037 -3.30761,-0.0416 -6.39434,0.0351 -6.86042,0.17023 -0.57214,0.16588 -0.88801,10.37549 -0.97017,31.42756 -0.0669,17.14936 -0.0426,31.30577 0.0532,31.46008 0.37571,0.60476 12.31696,0.50689 14.03071,-0.11512 1.00076,-0.36323 2.24726,-1.28073 2.76908,-2.03899 0.52183,-0.75827 0.98447,-1.44711 1.02859,-1.53131 0.34106,-0.65084 0.27141,-53.83053 -0.0722,-55.13753 -0.50988,-1.93919 -1.66508,-3.07451 -4.09414,-3.67455 z m -32.71577,-0.24736 c -1.01523,-0.42673 -188.23572,-1.24711 -188.89644,-0.82772 -0.46433,0.29472 -0.81218,60.92374 -0.35712,62.23621 0.22309,0.64344 25.76114,1.00453 88.67508,1.2533 48.59894,0.19218 91.22143,0.33424 94.71823,0.31609 3.56914,-0.0185 6.42188,-0.3878 6.50422,-0.8422 0.0807,-0.44516 0.18299,-14.51858 0.22726,-31.27332 0.0582,-22.03798 -0.1823,-30.57279 -0.87123,-30.86236 z m -207.93078,-0.87197 c -1.63762,-0.52789 -12.0397,-0.39109 -13.81796,0.2467 -3.71064,1.3309 -3.80798,2.08234 -3.9333,30.36723 -0.065,14.67322 0.17651,27.49334 0.5367,28.49013 1.21841,3.37187 2.901,4.0052 10.56357,3.97331 5.79922,-0.0241 6.99676,-0.24066 6.92035,-1.25354 -0.0513,-0.67359 -0.0322,-14.74822 0.0419,-31.27672 0.0741,-16.5285 0.0259,-30.22215 -0.10696,-30.43142 -0.0262,-0.0412 -0.0952,-0.0805 -0.20429,-0.11573 z"
         id="path831" />
    </g>
    <g
       transform="matrix(1.0416604,0,0,1.0416604,-11.457663,-34.164085)"
       id="g827">
      <path
         inkscape:connector-curvature="0"
         style="fill:#ffffff;stroke-width:0.7082988"
         d="m 399.16406,212.9375 c -1.04823,-0.001 -2.25917,0.0312 -3.65625,0.0312 h -7.3125 v 26.91406 26.91602 h 7.21289 c 6.43237,0 7.39385,-0.1679 8.85547,-1.54102 l 1.63867,-1.53906 v -23.73633 c 0,-25.41806 0.59934,-27.0372 -6.73828,-27.04492 z m -208.71679,0.0312 c -6.43238,0 -7.39189,0.16594 -8.85352,1.53906 l -1.63867,1.54102 v 23.73437 c 0,29.04921 -0.78402,27.01563 10.39258,27.01563 h 7.31445 V 239.88276 212.9687 Z m 16.42382,0 v 26.91406 26.91602 h 4.60352 4.60351 V 239.88276 212.9687 h -4.60351 z m 86.05664,0 c -59.63702,0 -67.64694,0.12579 -67.68164,1.0625 -0.0216,0.58434 -0.0391,11.10177 -0.0391,23.37305 0,12.27128 0.0175,23.90568 0.0391,25.85351 l 0.0391,3.54102 h 67.64257 67.64258 V 239.88276 212.9687 Z m 76.85157,0 v 26.91406 26.91602 h 4.60351 4.60352 V 239.88276 212.9687 h -4.60352 z m -52.88672,6.14648 c 11.04569,0 20,8.95431 20,20 0,11.04569 -8.95431,20 -20,20 -11.04569,0 -20,-8.95431 -20,-20 0,-11.04569 8.95431,-20 20,-20 z m 71.30273,65.97071 v 22.73047 22.72851 h 7.11524 c 6.61,0 7.23841,-0.12317 8.85351,-1.73828 l 1.73828,-1.73828 v -19.07813 c 0,-23.75314 0.64758,-22.31452 -10.20703,-22.66406 z m -251.48242,0.1289 c -6.66287,0 -10.00207,0.98974 -10.85742,3.21875 -0.24199,0.63062 -0.43945,9.58133 -0.43945,19.89063 v 18.74414 l 1.73828,1.73828 c 1.61511,1.61511 2.24352,1.73828 8.85351,1.73828 h 7.11524 v -22.66406 -22.66602 z m 24.82617,0 v 22.66602 22.66406 H 265.6582 369.7793 V 307.88086 285.21484 H 265.6582 Z m -43.14844,63.7461 c -3.86377,0 -7.54126,0.1994 -8.17187,0.4414 -3.0166,1.15758 -3.21875,3.11234 -3.21875,31.08985 0,18.8971 0.23979,27.09213 0.82422,28.18945 1.52804,2.869 2.79166,3.27152 10.33203,3.29492 L 125.41602,412 v -31.51953 -31.51953 z m 16.23243,0 V 380.48047 412 h 4.25 4.25 v -31.51953 -31.51953 h -4.25 z m 17.70898,0 V 380.48047 412 H 256.45117 360.57031 V 380.48047 348.96094 H 256.45117 Z m 217.44727,0 V 380.48047 412 h 4.60351 4.60352 v -31.51953 -31.51953 h -4.60352 z m 18.41601,0 V 380.48047 412 h 7.11524 c 6.61,0 7.23841,-0.12317 8.85351,-1.73828 l 1.73828,-1.73828 v -28.04297 -28.04102 l -1.73828,-1.74023 c -1.6151,-1.61511 -2.24351,-1.73828 -8.85351,-1.73828 z m -71.30273,12.15429 c 11.04569,0 20,8.95431 20,20 0,11.04569 -8.95431,20 -20,20 -11.04569,0 -20,-8.95431 -20,-20 0,-11.04569 8.95431,-20 20,-20 z"
         id="path872"
         sodipodi:nodetypes="cscccsccsccsccsscccscccccccccscsccccccscccccccccssssscccsccsccscscsscccscccccccccccsccccccccccccccccccccccccccccccccccccscccccccsssss" />
      <path
         id="path823"
         d="m 402.13206,136.30694 c -1.45742,-0.36007 -3.37428,-0.5288 -5.88464,-0.56037 -3.30761,-0.0416 -6.39434,0.0351 -6.86042,0.17023 -0.57214,0.16588 -0.88801,10.37549 -0.97017,31.42756 -0.0669,17.14936 -0.0426,31.30577 0.0532,31.46008 0.37571,0.60476 12.31696,0.50689 14.03071,-0.11512 1.00076,-0.36323 2.24726,-1.28073 2.76908,-2.03899 0.52183,-0.75827 0.98447,-1.44711 1.02859,-1.53131 0.34106,-0.65084 0.27141,-53.83053 -0.0722,-55.13753 -0.50988,-1.93919 -1.66508,-3.07451 -4.09414,-3.67455 z m -32.71577,-0.24736 c -1.01523,-0.42673 -188.23572,-1.24711 -188.89644,-0.82772 -0.46433,0.29472 -0.81218,60.92374 -0.35712,62.23621 0.22309,0.64344 25.76114,1.00453 88.67508,1.2533 48.59894,0.19218 91.22143,0.33424 94.71823,0.31609 3.56914,-0.0185 6.42188,-0.3878 6.50422,-0.8422 0.0807,-0.44516 0.18299,-14.51858 0.22726,-31.27332 0.0582,-22.03798 -0.1823,-30.57279 -0.87123,-30.86236 z m -207.93078,-0.87197 c -1.63762,-0.52789 -12.0397,-0.39109 -13.81796,0.2467 -3.71064,1.3309 -3.80798,2.08234 -3.9333,30.36723 -0.065,14.67322 0.17651,27.49334 0.5367,28.49013 1.21841,3.37187 2.901,4.0052 10.56357,3.97331 5.79922,-0.0241 6.99676,-0.24066 6.92035,-1.25354 -0.0513,-0.67359 -0.0322,-14.74822 0.0419,-31.27672 0.0741,-16.5285 0.0259,-30.22215 -0.10696,-30.43142 -0.0262,-0.0412 -0.0952,-0.0805 -0.20429,-0.11573 z"
         style="fill:#ffffff;stroke-width:0.7082988"
         inkscape:connector-curvature="0"
         sodipodi:nodetypes="cccscscccccccsscscccscccsccc" />
    </g>
  </g>
</svg>

<?xml version="1.0" encoding="UTF-8" standalone="no"?>
<!-- Generator: flash2svg, http://dissentgraphics.com/tools/flash2svg -->

<svg
   xmlns:dc="http://purl.org/dc/elements/1.1/"
   xmlns:cc="http://creativecommons.org/ns#"
   xmlns:rdf="http://www.w3.org/1999/02/22-rdf-syntax-ns#"
   xmlns:svg="http://www.w3.org/2000/svg"
   xmlns="http://www.w3.org/2000/svg"
   xmlns:sodipodi="http://sodipodi.sourceforge.net/DTD/sodipodi-0.dtd"
   xmlns:inkscape="http://www.inkscape.org/namespaces/inkscape"
   id="Calibre"
   version="1.1"
   x="0px"
   y="0px"
   width="512"
   height="512"
   viewBox="0 0 512 512"
   enable-background="new 0 0 1024 1024"
   inkscape:version="0.92.2 2405546, 2018-03-11"
   sodipodi:docname="applications-x-tellico.svg"
   style="image-rendering:optimizeSpeed">
  <metadata
     id="metadata53">
    <rdf:RDF>
      <cc:Work
         rdf:about="">
        <dc:format>image/svg+xml</dc:format>
        <dc:type
           rdf:resource="http://purl.org/dc/dcmitype/StillImage" />
        <dc:title></dc:title>
      </cc:Work>
    </rdf:RDF>
  </metadata>
  <sodipodi:namedview
     pagecolor="#ffffff"
     bordercolor="#666666"
     borderopacity="1"
     objecttolerance="10"
     gridtolerance="10"
     guidetolerance="10"
     inkscape:pageopacity="0"
     inkscape:pageshadow="2"
     inkscape:window-width="1366"
     inkscape:window-height="717"
     id="namedview51"
     showgrid="false"
     inkscape:zoom="0.35769659"
     inkscape:cx="-104.58294"
     inkscape:cy="389.33675"
     inkscape:window-x="0"
     inkscape:window-y="24"
     inkscape:window-maximized="1"
     inkscape:current-layer="Calibre" />
  <defs
     transform="matrix(1 0 0 1 0 0) "
     id="defs3" />
  <g
     id="g886">
    <path
       style="fill:#3689e6;fill-opacity:1;stroke-width:11.10955811"
       inkscape:connector-curvature="0"
       d="M 432.91336,56.473967 C 535.10616,145.04856 538.74001,306.17367 441.03015,416.37276 343.32009,526.57184 181.27948,544.10061 79.086673,455.52602 -23.106166,366.95143 -26.740027,205.82631 70.969881,95.627227 168.67975,-14.571854 330.72029,-32.100623 432.91336,56.473967 Z"
       id="path911" />
    <path
       style="opacity:1;fill:#000000;fill-opacity:0.49019608;stroke-width:11.10955238"
       inkscape:connector-curvature="0"
       d="M 511.63501,224.90352 C 510.08361,286.21518 486.4738,349.05812 440.6687,400.71801 342.95883,510.9171 180.91854,528.44585 78.725731,439.87127 30.827127,398.35564 4.4968527,340.92283 0.193863,280.22879 0.79911423,346.58547 27.117419,410.48219 79.078635,455.51904 181.27144,544.09362 343.31942,526.5562 441.0216,416.36578 490.72648,360.30764 514.02655,291.07481 511.63501,224.90352 Z"
       id="path913" />
    <path
       inkscape:connector-curvature="0"
       style="fill:#000000;stroke-width:0.7082988;fill-opacity:0.49019608"
       d="m 408.25781,120.00391 c -1.50087,-0.0336 -3.4084,0.21972 -5.86523,0.73632 -3.23707,0.68068 -6.23281,1.42859 -6.6582,1.66211 -0.52221,0.28665 1.39583,10.31945 5.90624,30.88282 3.67427,16.75127 6.78491,30.56171 6.91211,30.6914 0.49854,0.50829 12.13109,-2.19112 13.66797,-3.17187 0.89747,-0.57271 1.91391,-1.73994 2.25782,-2.59375 0.34392,-0.8538 0.64522,-1.62695 0.66992,-1.71875 0.19093,-0.70955 -11.47337,-52.59431 -12.09375,-53.79492 -0.92047,-1.78134 -2.29543,-2.63744 -4.79688,-2.69336 z m -31.98242,6.89257 c -1.08386,-0.19508 -183.97788,39.82944 -184.53125,40.38282 -0.38888,0.38887 12.49235,59.63474 13.22266,60.8164 0.35803,0.57931 25.36026,-4.63711 86.81445,-18.11328 47.47134,-10.40989 89.09912,-19.56548 92.50781,-20.3457 3.47922,-0.79636 6.18278,-1.77882 6.16406,-2.24024 -0.0183,-0.45205 -2.98732,-14.2091 -6.59765,-30.57031 -4.74878,-21.52034 -6.84459,-29.79732 -7.58008,-29.92969 z M 173.1582,171.38672 c -1.71332,-0.15809 -11.83525,2.24369 -13.43164,3.2539 -3.33113,2.10801 -3.26227,2.8626 2.78321,30.49415 3.13619,14.33429 6.16744,26.79324 6.73632,27.6875 1.92436,3.02504 3.70457,3.27622 11.17579,1.57421 5.6544,-1.28812 6.7759,-1.76058 6.48046,-2.73242 -0.19649,-0.64633 -3.24744,-14.38629 -6.77929,-30.5332 -3.53186,-16.14692 -6.56498,-29.50051 -6.74024,-29.67578 -0.0345,-0.0345 -0.11039,-0.0578 -0.22461,-0.0684 z m 246.00586,61.55078 c -1.04823,-0.001 -2.25917,0.0312 -3.65625,0.0312 h -7.3125 v 26.91406 26.91602 h 7.21289 c 6.43237,0 7.39385,-0.1679 8.85547,-1.54102 l 1.63867,-1.53906 v -23.73633 c 0,-25.41806 0.59934,-27.0372 -6.73828,-27.04492 z m -208.71679,0.0312 c -6.43238,0 -7.39189,0.16594 -8.85352,1.53906 l -1.63867,1.54102 v 23.73437 c 0,29.04921 -0.78402,27.01563 10.39258,27.01563 h 7.31445 V 259.88276 232.9687 Z m 16.42382,0 v 26.91406 26.91602 h 4.60352 4.60351 V 259.88276 232.9687 h -4.60351 z m 86.05664,0 c -59.63702,0 -67.64694,0.12579 -67.68164,1.0625 -0.0216,0.58434 -0.0391,11.10177 -0.0391,23.37305 0,12.27128 0.0175,23.90568 0.0391,25.85351 l 0.0391,3.54102 h 67.64257 67.64258 V 259.88276 232.9687 Z m 76.85157,0 v 26.91406 26.91602 h 4.60351 4.60352 V 259.88276 232.9687 h -4.60352 z m -52.88672,6.14648 a 20,20 0 0 1 20,20 20,20 0 0 1 -20,20 20,20 0 0 1 -20,-20 20,20 0 0 1 20,-20 z m 71.30273,65.97071 v 22.73047 22.72851 h 7.11524 c 6.61,0 7.23841,-0.12317 8.85351,-1.73828 l 1.73828,-1.73828 v -19.07813 c 0,-23.75314 0.64758,-22.31452 -10.20703,-22.66406 z m -251.48242,0.1289 c -6.66287,0 -10.00207,0.98974 -10.85742,3.21875 -0.24199,0.63062 -0.43945,9.58133 -0.43945,19.89063 v 18.74414 l 1.73828,1.73828 c 1.61511,1.61511 2.24352,1.73828 8.85351,1.73828 h 7.11524 v -22.66406 -22.66602 z m 24.82617,0 v 22.66602 22.66406 H 285.6582 389.7793 V 327.88086 305.21484 H 285.6582 Z m -43.14844,63.7461 c -3.86377,0 -7.54126,0.1994 -8.17187,0.4414 -3.0166,1.15758 -3.21875,3.11234 -3.21875,31.08985 0,18.8971 0.23979,27.09213 0.82422,28.18945 1.52804,2.869 2.79166,3.27152 10.33203,3.29492 L 145.41602,432 v -31.51953 -31.51953 z m 16.23243,0 V 400.48047 432 h 4.25 4.25 v -31.51953 -31.51953 h -4.25 z m 17.70898,0 V 400.48047 432 H 276.45117 380.57031 V 400.48047 368.96094 H 276.45117 Z m 217.44727,0 V 400.48047 432 h 4.60351 4.60352 v -31.51953 -31.51953 h -4.60352 z m 18.41601,0 V 400.48047 432 h 7.11524 c 6.61,0 7.23841,-0.12317 8.85351,-1.73828 l 1.73828,-1.73828 v -28.04297 -28.04102 l -1.73828,-1.74023 c -1.6151,-1.61511 -2.24351,-1.73828 -8.85351,-1.73828 z m -71.30273,12.15429 a 20,20 0 0 1 20,20 20,20 0 0 1 -20,20 20,20 0 0 1 -20,-20 20,20 0 0 1 20,-20 z"
       id="path880" />
    <path
       id="path872"
       d="M 388.25781 100.00391 C 386.75694 99.970347 384.84941 100.22363 382.39258 100.74023 C 379.15551 101.42091 376.15977 102.16882 375.73438 102.40234 C 375.21217 102.68899 377.13021 112.72179 381.64062 133.28516 C 385.31489 150.03643 388.42553 163.84687 388.55273 163.97656 C 389.05127 164.48485 400.68382 161.78544 402.2207 160.80469 C 403.11817 160.23198 404.13461 159.06475 404.47852 158.21094 C 404.82244 157.35714 405.12374 156.58399 405.14844 156.49219 C 405.33937 155.78264 393.67507 103.89788 393.05469 102.69727 C 392.13422 100.91593 390.75926 100.05983 388.25781 100.00391 z M 356.27539 106.89648 C 355.19153 106.7014 172.29751 146.72592 171.74414 147.2793 C 171.35526 147.66817 184.23649 206.91404 184.9668 208.0957 C 185.32483 208.67501 210.32706 203.45859 271.78125 189.98242 C 319.25259 179.57253 360.88037 170.41694 364.28906 169.63672 C 367.76828 168.84036 370.47184 167.8579 370.45312 167.39648 C 370.43482 166.94443 367.4658 153.18738 363.85547 136.82617 C 359.10669 115.30583 357.01088 107.02885 356.27539 106.89648 z M 153.1582 151.38672 C 151.44488 151.22863 141.32295 153.63041 139.72656 154.64062 C 136.39543 156.74863 136.46429 157.50322 142.50977 185.13477 C 145.64596 199.46906 148.67721 211.92801 149.24609 212.82227 C 151.17045 215.84731 152.95066 216.09849 160.42188 214.39648 C 166.07628 213.10836 167.19778 212.6359 166.90234 211.66406 C 166.70585 211.01773 163.6549 197.27777 160.12305 181.13086 C 156.59119 164.98394 153.55807 151.63035 153.38281 151.45508 C 153.34835 151.42061 153.27242 151.39726 153.1582 151.38672 z M 399.16406 212.9375 C 398.11583 212.9364 396.90489 212.96875 395.50781 212.96875 L 388.19531 212.96875 L 388.19531 239.88281 L 388.19531 266.79883 L 395.4082 266.79883 C 401.84057 266.79883 402.80205 266.63093 404.26367 265.25781 L 405.90234 263.71875 L 405.90234 239.98242 C 405.90234 214.56436 406.50168 212.94522 399.16406 212.9375 z M 190.44727 212.96875 C 184.01489 212.96875 183.05538 213.13469 181.59375 214.50781 L 179.95508 216.04883 L 179.95508 239.7832 C 179.95508 268.83241 179.17106 266.79883 190.34766 266.79883 L 197.66211 266.79883 L 197.66211 239.88281 L 197.66211 212.96875 L 190.44727 212.96875 z M 206.87109 212.96875 L 206.87109 239.88281 L 206.87109 266.79883 L 211.47461 266.79883 L 216.07812 266.79883 L 216.07812 239.88281 L 216.07812 212.96875 L 211.47461 212.96875 L 206.87109 212.96875 z M 292.92773 212.96875 C 233.29071 212.96875 225.28079 213.09454 225.24609 214.03125 C 225.22449 214.61559 225.20703 225.13302 225.20703 237.4043 C 225.20703 249.67558 225.22449 261.30998 225.24609 263.25781 L 225.28516 266.79883 L 292.92773 266.79883 L 360.57031 266.79883 L 360.57031 239.88281 L 360.57031 212.96875 L 292.92773 212.96875 z M 369.7793 212.96875 L 369.7793 239.88281 L 369.7793 266.79883 L 374.38281 266.79883 L 378.98633 266.79883 L 378.98633 239.88281 L 378.98633 212.96875 L 374.38281 212.96875 L 369.7793 212.96875 z M 316.89258 219.11523 A 20 20 0 0 1 336.89258 239.11523 A 20 20 0 0 1 316.89258 259.11523 A 20 20 0 0 1 296.89258 239.11523 A 20 20 0 0 1 316.89258 219.11523 z M 388.19531 285.08594 L 388.19531 307.81641 L 388.19531 330.54492 L 395.31055 330.54492 C 401.92055 330.54492 402.54896 330.42175 404.16406 328.80664 L 405.90234 327.06836 L 405.90234 307.99023 C 405.90234 284.23709 406.54992 285.67571 395.69531 285.32617 L 388.19531 285.08594 z M 136.71289 285.21484 C 130.05002 285.21484 126.71082 286.20458 125.85547 288.43359 C 125.61348 289.06421 125.41602 298.01492 125.41602 308.32422 L 125.41602 327.06836 L 127.1543 328.80664 C 128.76941 330.42175 129.39782 330.54492 136.00781 330.54492 L 143.12305 330.54492 L 143.12305 307.88086 L 143.12305 285.21484 L 136.71289 285.21484 z M 161.53906 285.21484 L 161.53906 307.88086 L 161.53906 330.54492 L 265.6582 330.54492 L 369.7793 330.54492 L 369.7793 307.88086 L 369.7793 285.21484 L 265.6582 285.21484 L 161.53906 285.21484 z M 118.39062 348.96094 C 114.52685 348.96094 110.84936 349.16034 110.21875 349.40234 C 107.20215 350.55992 107 352.51468 107 380.49219 C 107 399.38929 107.23979 407.58432 107.82422 408.68164 C 109.35226 411.55064 110.61588 411.95316 118.15625 411.97656 L 125.41602 412 L 125.41602 380.48047 L 125.41602 348.96094 L 118.39062 348.96094 z M 134.62305 348.96094 L 134.62305 380.48047 L 134.62305 412 L 138.87305 412 L 143.12305 412 L 143.12305 380.48047 L 143.12305 348.96094 L 138.87305 348.96094 L 134.62305 348.96094 z M 152.33203 348.96094 L 152.33203 380.48047 L 152.33203 412 L 256.45117 412 L 360.57031 412 L 360.57031 380.48047 L 360.57031 348.96094 L 256.45117 348.96094 L 152.33203 348.96094 z M 369.7793 348.96094 L 369.7793 380.48047 L 369.7793 412 L 374.38281 412 L 378.98633 412 L 378.98633 380.48047 L 378.98633 348.96094 L 374.38281 348.96094 L 369.7793 348.96094 z M 388.19531 348.96094 L 388.19531 380.48047 L 388.19531 412 L 395.31055 412 C 401.92055 412 402.54896 411.87683 404.16406 410.26172 L 405.90234 408.52344 L 405.90234 380.48047 L 405.90234 352.43945 L 404.16406 350.69922 C 402.54896 349.08411 401.92055 348.96094 395.31055 348.96094 L 388.19531 348.96094 z M 316.89258 361.11523 A 20 20 0 0 1 336.89258 381.11523 A 20 20 0 0 1 316.89258 401.11523 A 20 20 0 0 1 296.89258 381.11523 A 20 20 0 0 1 316.89258 361.11523 z "
       style="fill:#ffffff;stroke-width:0.7082988" />
  </g>
</svg>
